X:1
T:Zwölf Gesänge
T:Nach Sevilla
T:Louise Reichardt
T:Clemens Brentano
T:3. Nach Sevilla
T:Zwölf Gesänge
T:OpenScore (CC0)
T:OpenScore (CC0)
T:OpenScore (CC0)
C:Louise Reichardt
Z:Clemens Brentano
Z:OpenScore (CC0)
%%score 1 { 2 | ( 3 4 ) }
L:1/8
Q:1/4=120
M:2/4
K:E
V:1 treble nm="Voice"
V:2 treble nm="Piano"
V:3 bass 
V:4 bass 
V:1
"^Lebhaft" B3/2 B/ | B G z e3/4 e/4 | e B z e/ d/ | c3/2 B/ AB/ c/ | c B z B/ e/ | %5
w: 1. Nach Se-|vil- la, nach Se-|vil- la, wo die|ho- hen Pracht- * ge-|bäu- de in den|
w:  2. Nach Se-|vil- la, nach Se-|vil- la, wo die|letz- ten Häu- * fer|stehn, _ die _|
 e/d/ c/B/ B3/2 A/ | AG z G/ G/ | c3/2 =d/ c3/2 B/ | B A f3/2 c/ | B3/2 c/ B3/2 A/ |1,3 %10
w: brei- * ten * Stras- sen|stehn, _ aus den|Fen- stern rei- che|Leu- te schön- ge-|putz- te Frau- en|
w: Nach- * barn * freund- lich|grüs- sen, Mäd- chen|aus dem Fen- ster|sehn, _ Ih- re|Blu- men zu be\-|
 AG z e/ B/ | c A F B | G z B3/2 e/ | c f e d | e z z :|2,4 A G e2- | e2 c2 | B3/2 E/ F3/2 D/ | %18
w: sehn: _ da- hin|sehnt mein Herz sich|nicht, da- hin|sehnt mein Herz sich|nicht.|gies- sen, ach!|_ da|sehnt mein Herz sich|
w: ||||||||
 E z z2 | z4 | z2 z :| %21
w: hin.|||
w: |||
V:2
 z2 | z [EG][EG] z | z [EGB][EGB] z | E/c/A/c/ E/c/A/c/ | E/B/G/B/ E/B/G/B/ | %5
[I:staff +1] B,/[I:staff -1]A/D/A/[I:staff +1] B,/[I:staff -1]A/D/A/ | %6
[I:staff +1] B,/[I:staff -1]G/E/G/[I:staff +1] B,/[I:staff -1]G/E/G/ | C/B/G/B/ C/B/G/B/ | %8
 C/A/F/A/ C/A/F/A/ |[I:staff +1] B,/[I:staff -1]A/D/A/[I:staff +1] B,/[I:staff -1]A/D/A/ |1,3 %10
[I:staff +1] B,/[I:staff -1]G/E/G/[I:staff +1] B,/[I:staff -1]G/E/B/ | E/c/A/c/ D/B/F/B/ | %12
 E/B/G/B/ E/B/G/B/ | [Ec][Af][Ge][Fd] | [Ge] EE :|2,4[I:staff +1] B,/[I:staff -1]G/E/G/ E/e/B/e/ | %16
 E/e/B/e/ E/c/A/c/ | E/B/G/B/[I:staff +1] A,/[I:staff -1]F/D/F/ | z [EGBe] z [EAc] | z [EGB] z D | %20
 E [EG] E :| %21
V:3
 z2 | z E,E, z | z E,E, z | [E,A,C]4 | [E,G,B,]4 | [B,,F,]2 [B,,F,]2 | E,4 | ^E,4 | F,4 | %9
 [B,,F,]4 |1,3 E,2 G,2 | [A,,A,]2 [B,,F,]2 | E,2 E,2 | A,A,B,B, | E, [E,,E,][E,,E,] :|2,4 %15
 E,2 G,2- | G,2 A,2 | B,2 B,,2 | [E,G,] z A, z | B, z B,, z | E, E, E, :| %21
V:4
 x2 | x B,B, x | x4 | x4 | x4 | x4 | x4 | x4 | x4 | x4 |1,3 x4 | x4 | x4 | x4 | %14
 x [G,B,][G,B,] :|2,4 x4 | x4 | x4 | x4 | x4 | [G,B,] B, G, :| %21

